austria/municipalities/40918.svg

<?xml version="1.0" encoding="UTF-8"?>
<!DOCTYPE svg PUBLIC "-//W3C//DTD SVG 1.1//EN" "http://www.w3.org/Graphics/SVG/1.1/DTD/svg11.dtd">
<svg xmlns="http://www.w3.org/2000/svg" version="1.1" width="166px" height="207px" style="shape-rendering:geometricPrecision; text-rendering:geometricPrecision; image-rendering:optimizeQuality; fill-rule:evenodd; clip-rule:evenodd" xmlns:xlink="http://www.w3.org/1999/xlink">
<g><path style="opacity:1" fill="#020202" d="M -0.5,-0.5 C 54.8333,-0.5 110.167,-0.5 165.5,-0.5C 165.5,44.1667 165.5,88.8333 165.5,133.5C 157.475,172.524 134.142,196.858 95.5,206.5C 86.8333,206.5 78.1667,206.5 69.5,206.5C 30.0061,196.67 6.67281,171.67 -0.5,131.5C -0.5,87.5 -0.5,43.5 -0.5,-0.5 Z"/></g>
<g><path style="opacity:1" fill="#fe9900" d="M 62.5,43.5 C 61.8333,43.5 61.1667,43.5 60.5,43.5C 51.489,39.3219 44.1557,33.1552 38.5,25C 40.7141,23.4105 42.0475,21.2439 42.5,18.5C 40.5371,15.0384 38.0371,12.0384 35,9.5C 33.0858,10.676 33.2524,11.676 35.5,12.5C 34.0098,13.8257 32.6765,15.3257 31.5,17C 33.0139,18.439 33.3473,19.939 32.5,21.5C 31.066,19.7801 30.2326,17.7801 30,15.5C 28.9148,14.7069 27.7481,14.0402 26.5,13.5C 24.9579,14.7468 23.4579,14.7468 22,13.5C 20.1508,15.0473 18.6508,16.8807 17.5,19C 19.2251,18.5913 20.8918,18.7579 22.5,19.5C 21.3845,20.5984 21.3845,21.7651 22.5,23C 19.0082,26.4776 17.5082,30.6443 18,35.5C 18.9147,34.6721 19.5814,33.6721 20,32.5C 21.67,34.6983 23.67,35.0317 26,33.5C 26.4017,34.8721 26.9017,36.2054 27.5,37.5C 26.5,38.1667 25.5,38.8333 24.5,39.5C 27.7418,43.0998 31.4085,43.4331 35.5,40.5C 36.2978,38.9223 36.7978,37.2556 37,35.5C 38.4302,41.0976 41.5969,45.431 46.5,48.5C 48.6667,52.8333 50.8333,57.1667 53,61.5C 54.1096,63.0368 55.6096,63.7035 57.5,63.5C 57.5,64.8333 57.5,66.1667 57.5,67.5C 50.102,69.2999 42.7687,71.2999 35.5,73.5C 34.1667,73.3333 32.8333,73.1667 31.5,73C 30.8971,71.1746 30.2304,69.3413 29.5,67.5C 26.6787,66.7993 24.012,65.7993 21.5,64.5C 20.062,64.7189 18.7287,65.2189 17.5,66C 21.0411,67.0708 21.7078,68.7374 19.5,71C 20.1634,72.5185 21.1634,73.6851 22.5,74.5C 22.5,75.1667 22.5,75.8333 22.5,76.5C 17.3645,73.4031 14.0312,74.9031 12.5,81C 12.9495,83.283 14.2828,84.783 16.5,85.5C 17.7112,84.7261 17.7112,83.8928 16.5,83C 18.8909,83.3906 21.2243,83.3906 23.5,83C 21.7888,84.1332 21.2888,85.6332 22,87.5C 23.0836,88.6651 23.9169,89.9984 24.5,91.5C 25.325,92.3857 26.325,92.719 27.5,92.5C 27.5,91.5 27.5,90.5 27.5,89.5C 32.9148,89.5018 33.9148,87.3352 30.5,83C 32.1312,82.7764 33.1312,83.6097 33.5,85.5C 34.325,86.3857 35.325,86.719 36.5,86.5C 36.6399,88.1238 35.9733,89.2904 34.5,90C 35.8333,90.6667 37.1667,90.6667 38.5,90C 39.7287,88.4708 41.2287,87.3041 43,86.5C 43.7203,84.8876 43.5536,83.3876 42.5,82C 44.6982,81.6271 46.8649,81.1271 49,80.5C 58.4019,82.2982 67.9019,83.4648 77.5,84C 75.9559,84.2896 74.6226,84.9563 73.5,86C 79.4352,88.12 84.4352,91.4534 88.5,96C 60.1686,96.5 31.8353,96.6666 3.5,96.5C 3.5,65.5 3.5,34.5 3.5,3.5C 56.1667,3.5 108.833,3.5 161.5,3.5C 161.5,34.5 161.5,65.5 161.5,96.5C 153.167,96.5 144.833,96.5 136.5,96.5C 136.762,90.5491 136.096,84.7158 134.5,79C 134.879,74.7422 136.712,71.2422 140,68.5C 142.691,72.215 145.025,76.215 147,80.5C 148.065,82.3963 148.898,82.563 149.5,81C 148.086,75.7552 146.086,70.7552 143.5,66C 138.013,63.7186 133.846,65.2186 131,70.5C 127.743,66.2127 127.076,61.546 129,56.5C 134.251,54.7124 137.251,56.7124 138,62.5C 139.313,56.1278 136.813,52.1278 130.5,50.5C 127.812,51.0049 125.645,52.3382 124,54.5C 121.139,43.7384 123.973,34.5717 132.5,27C 134.473,26.5045 136.473,26.3379 138.5,26.5C 138.662,28.5273 138.495,30.5273 138,32.5C 133.451,36.7542 132.784,41.4208 136,46.5C 135.937,42.5579 137.603,39.5579 141,37.5C 140.031,40.968 138.864,44.468 137.5,48C 138.757,52.0928 141.424,54.5928 145.5,55.5C 144.551,52.7925 144.551,50.1258 145.5,47.5C 145.51,50.3437 146.843,52.8437 149.5,55C 152.003,55.8736 154.003,55.207 155.5,53C 154.207,52.51 152.873,52.3433 151.5,52.5C 151.34,50.8008 151.506,49.1341 152,47.5C 155.143,49.1428 157.309,48.3095 158.5,45C 158.333,44.5 158.167,44 158,43.5C 156.026,46.1183 154.193,45.9517 152.5,43C 153.693,39.7513 154.693,36.418 155.5,33C 154.158,29.3206 152.825,25.6539 151.5,22C 136.585,15.3691 125.752,19.5357 119,34.5C 114.798,44.24 114.798,53.9067 119,63.5C 126.223,73.2868 130.056,84.2868 130.5,96.5C 126.154,96.6657 121.821,96.499 117.5,96C 115.697,92.8967 113.53,90.0633 111,87.5C 110.152,84.3022 108.652,81.4689 106.5,79C 109.043,78.8603 111.377,78.1937 113.5,77C 109.869,74.9601 108.536,71.7935 109.5,67.5C 116.273,66.02 116.773,63.6867 111,60.5C 109.335,55.1116 109.669,49.7782 112,44.5C 112.667,39.1667 112.667,33.8333 112,28.5C 110.907,25.4141 109.074,22.9141 106.5,21C 108.053,17.4347 107.72,14.1014 105.5,11C 102.172,9.04354 99.1722,9.54354 96.5,12.5C 92.2136,11.1188 87.8803,10.2855 83.5,10C 81.9186,11.828 80.5853,13.828 79.5,16C 76.9973,16.1294 74.9973,17.1294 73.5,19C 74.8333,21.6667 76.1667,24.3333 77.5,27C 74.2158,27.9808 71.5491,27.1475 69.5,24.5C 72.215,22.4495 72.0483,20.7828 69,19.5C 60.782,23.6235 60.6154,27.7902 68.5,32C 71.5,32.3333 74.5,32.6667 77.5,33C 76.1398,34.9376 76.4732,36.6043 78.5,38C 83.5044,39.4213 88.5044,39.588 93.5,38.5C 94.6956,38.8457 94.6956,39.3457 93.5,40C 91.1667,40.3333 88.8333,40.6667 86.5,41C 83.6939,45.5719 80.6939,45.5719 77.5,41C 73.6626,40.2387 69.9959,40.7387 66.5,42.5C 64.9707,42.4712 63.804,41.8045 63,40.5C 62.5172,41.448 62.3505,42.448 62.5,43.5 Z"/></g>
<g><path style="opacity:1" fill="#fefffe" d="M 86.5,13.5 C 87.1577,14.3984 87.8243,15.3984 88.5,16.5C 89.1667,15.8333 89.8333,15.1667 90.5,14.5C 91.6264,16.5063 90.9597,17.8396 88.5,18.5C 86.9716,17.1387 85.3049,15.972 83.5,15C 84.7375,14.7679 85.7375,14.2679 86.5,13.5 Z"/></g>
<g><path style="opacity:1" fill="#cb0000" d="M 67.5,21.5 C 68.7911,22.5417 68.7911,23.7083 67.5,25C 68.1667,26 68.8333,27 69.5,28C 74.8333,28.3333 80.1667,28.6667 85.5,29C 87.0016,29.5831 88.3349,30.4164 89.5,31.5C 89,31.8333 88.5,32.1667 88,32.5C 81.2092,31.0036 74.3759,30.1703 67.5,30C 64.8987,27.1705 64.8987,24.3371 67.5,21.5 Z"/></g>
<g><path style="opacity:1" fill="#fefffe" d="M 25.5,24.5 C 27.337,24.6395 27.6704,25.3061 26.5,26.5C 25.7025,26.0431 25.3691,25.3764 25.5,24.5 Z"/></g>
<g><path style="opacity:1" fill="#fefffe" d="M 85.5,25.5 C 87.6859,25.5106 88.5192,26.5106 88,28.5C 86.6012,27.7734 85.1012,27.2734 83.5,27C 84.4158,26.7216 85.0825,26.2216 85.5,25.5 Z"/></g>
<g><path style="opacity:1" fill="#fefffe" d="M 99.5,27.5 C 101.377,28.6591 101.877,30.3258 101,32.5C 100.392,30.8455 99.8923,29.1789 99.5,27.5 Z"/></g>
<g><path style="opacity:1" fill="#fefffe" d="M 60.5,43.5 C 61.1667,43.5 61.8333,43.5 62.5,43.5C 62.317,45.9363 62.9837,48.103 64.5,50C 64.1667,50.1667 63.8333,50.3333 63.5,50.5C 61.9182,48.4229 60.9182,46.0896 60.5,43.5 Z"/></g>
<g><path style="opacity:1" fill="#fefffe" d="M 58.5,49.5 C 61.1025,52.0941 64.1025,52.9274 67.5,52C 65.728,53.4868 63.728,53.8201 61.5,53C 59.5743,52.5776 58.5743,51.4109 58.5,49.5 Z"/></g>
<g><path style="opacity:1" fill="#fefffe" d="M 57.5,62.5 C 58.4971,61.2875 59.4971,61.4542 60.5,63C 59.4232,63.4696 58.4232,63.3029 57.5,62.5 Z"/></g>
<g><path style="opacity:1" fill="#fefffe" d="M 22.5,74.5 C 28.9857,75.7755 28.9857,76.4422 22.5,76.5C 22.5,75.8333 22.5,75.1667 22.5,74.5 Z"/></g>
<g><path style="opacity:1" fill="#fefffe" d="M 63.5,76.5 C 65.337,76.6395 65.6704,77.3061 64.5,78.5C 63.7025,78.0431 63.3691,77.3764 63.5,76.5 Z"/></g>
<g><path style="opacity:1" fill="#fefffe" d="M 79.5,76.5 C 81.3442,77.2039 81.8442,78.5372 81,80.5C 80.2086,79.255 79.7086,77.9217 79.5,76.5 Z"/></g>
<g><path style="opacity:1" fill="#fefffe" d="M 91.5,78.5 C 92.2891,78.7828 92.9558,79.2828 93.5,80C 92.184,80.5281 91.5173,80.0281 91.5,78.5 Z"/></g>
<g><path style="opacity:1" fill="#fefffe" d="M 101.5,82.5 C 102.289,82.7828 102.956,83.2828 103.5,84C 102.184,84.5281 101.517,84.0281 101.5,82.5 Z"/></g>
<g><path style="opacity:1" fill="#003266" d="M 3.5,98.5 C 56.1667,98.5 108.833,98.5 161.5,98.5C 165.714,124.512 160.88,148.512 147,170.5C 118.985,203.295 85.1521,211.128 45.5,194C 22.2552,180.751 8.42186,160.918 4,134.5C 3.50013,122.505 3.33346,110.505 3.5,98.5 Z"/></g>
<g><path style="opacity:1" fill="#000000" d="M 77.5,102.5 C 80.8984,102.18 84.2317,102.513 87.5,103.5C 88.3742,105.747 88.7076,108.08 88.5,110.5C 90.5914,110.318 92.5914,110.652 94.5,111.5C 95.487,114.768 95.8204,118.102 95.5,121.5C 93.1667,121.5 90.8333,121.5 88.5,121.5C 88.1866,124.247 88.52,126.914 89.5,129.5C 114.204,135.202 128.538,150.536 132.5,175.5C 132.167,176.833 131.833,178.167 131.5,179.5C 125.643,173.143 119.31,167.309 112.5,162C 92.5124,150.671 72.5124,150.671 52.5,162C 45.3641,166.97 39.0308,172.803 33.5,179.5C 34.65,152.329 48.65,135.662 75.5,129.5C 76.48,126.914 76.8134,124.247 76.5,121.5C 74.1667,121.5 71.8333,121.5 69.5,121.5C 69.1796,118.102 69.513,114.768 70.5,111.5C 72.4086,110.652 74.4086,110.318 76.5,110.5C 76.4013,107.763 76.7347,105.096 77.5,102.5 Z"/></g>
<g><path style="opacity:1" fill="#fe9900" d="M 78.5,105.5 C 81.1667,105.5 83.8333,105.5 86.5,105.5C 86.5,108.167 86.5,110.833 86.5,113.5C 88.8333,113.5 91.1667,113.5 93.5,113.5C 93.5,115.5 93.5,117.5 93.5,119.5C 91.1667,119.5 88.8333,119.5 86.5,119.5C 86.1758,123.555 86.5091,127.555 87.5,131.5C 112.113,136.277 126.28,150.944 130,175.5C 114.302,155.433 93.8022,147.933 68.5,153C 54.7661,156.621 43.5995,164.121 35,175.5C 38.6698,150.992 52.8364,136.326 77.5,131.5C 78.4909,127.555 78.8242,123.555 78.5,119.5C 76.1667,119.5 73.8333,119.5 71.5,119.5C 71.5,117.5 71.5,115.5 71.5,113.5C 73.8333,113.5 76.1667,113.5 78.5,113.5C 78.5,110.833 78.5,108.167 78.5,105.5 Z"/></g>
<g><path style="opacity:1" fill="#fefffe" d="M -0.5,131.5 C 6.67281,171.67 30.0061,196.67 69.5,206.5C 46.1667,206.5 22.8333,206.5 -0.5,206.5C -0.5,181.5 -0.5,156.5 -0.5,131.5 Z"/></g>
<g><path style="opacity:1" fill="#fefffe" d="M 165.5,133.5 C 165.5,157.833 165.5,182.167 165.5,206.5C 142.167,206.5 118.833,206.5 95.5,206.5C 134.142,196.858 157.475,172.524 165.5,133.5 Z"/></g>
</svg>

<svg xmlns="http://www.w3.org/2000/svg" width="166" height="207" style="shape-rendering:geometricPrecision;text-rendering:geometricPrecision;image-rendering:optimizeQuality;fill-rule:evenodd;clip-rule:evenodd"><path style="opacity:1" fill="#020202" d="M-.5-.5h166v134c-8.025 39.024-31.358 63.358-70 73h-26c-39.494-9.83-62.827-34.83-70-75V-.5z"/><path style="opacity:1" fill="#fe9900" d="M62.5 43.5h-2c-9.011-4.178-16.344-10.345-22-18.5 2.214-1.59 3.547-3.756 4-6.5a32.57 32.57 0 0 0-7.5-9c-1.914 1.176-1.748 2.176.5 3a26.013 26.013 0 0 0-4 4.5c1.514 1.439 1.847 2.939 1 4.5-1.434-1.72-2.267-3.72-2.5-6a18.088 18.088 0 0 0-3.5-2c-1.542 1.247-3.042 1.247-4.5 0a18.816 18.816 0 0 0-4.5 5.5 7.493 7.493 0 0 1 5 .5c-1.116 1.098-1.116 2.265 0 3.5-3.492 3.478-4.992 7.644-4.5 12.5a7.291 7.291 0 0 0 2-3c1.67 2.198 3.67 2.532 6 1a28.83 28.83 0 0 0 1.5 4l-3 2c3.242 3.6 6.909 3.933 11 1a14.73 14.73 0 0 0 1.5-5c1.43 5.598 4.597 9.931 9.5 13l6.5 13c1.11 1.537 2.61 2.203 4.5 2v4a412.66 412.66 0 0 0-22 6l-4-.5a99.82 99.82 0 0 0-2-5.5c-2.821-.7-5.488-1.7-8-3a10.253 10.253 0 0 0-4 1.5c3.541 1.07 4.208 2.737 2 5 .663 1.519 1.663 2.685 3 3.5v2c-5.136-3.097-8.469-1.597-10 4.5.45 2.283 1.783 3.783 4 4.5 1.211-.774 1.211-1.607 0-2.5 2.39.39 4.724.39 7 0-1.711 1.133-2.211 2.633-1.5 4.5a12.417 12.417 0 0 1 2.5 4c.825.886 1.825 1.219 3 1v-3c5.415.002 6.415-2.165 3-6.5 1.631-.224 2.631.61 3 2.5.825.886 1.825 1.219 3 1 .14 1.624-.527 2.79-2 3.5 1.333.667 2.667.667 4 0a12.134 12.134 0 0 1 4.5-3.5c.72-1.612.554-3.112-.5-4.5a56.691 56.691 0 0 0 6.5-1.5A215.373 215.373 0 0 0 77.5 84c-1.544.29-2.877.956-4 2 5.935 2.12 10.935 5.453 15 10-28.331.5-56.665.667-85 .5v-93h158v93h-25a55.575 55.575 0 0 0-2-17.5c.379-4.258 2.212-7.758 5.5-10.5a71.2 71.2 0 0 1 7 12c1.065 1.896 1.898 2.063 2.5.5a68.742 68.742 0 0 0-6-15c-5.487-2.281-9.654-.781-12.5 4.5-3.257-4.287-3.924-8.954-2-14 5.251-1.788 8.251.212 9 6 1.313-6.372-1.187-10.372-7.5-12-2.688.505-4.855 1.838-6.5 4-2.861-10.762-.027-19.928 8.5-27.5a18.437 18.437 0 0 1 6-.5 18.452 18.452 0 0 1-.5 6c-4.549 4.254-5.216 8.92-2 14-.063-3.942 1.603-6.942 5-9a115.237 115.237 0 0 1-3.5 10.5c1.257 4.093 3.924 6.593 8 7.5-.949-2.708-.949-5.374 0-8 .01 2.844 1.343 5.344 4 7.5 2.503.874 4.503.207 6-2a8.435 8.435 0 0 0-4-.5c-.16-1.7.006-3.366.5-5 3.143 1.643 5.309.81 6.5-2.5l-.5-1.5c-1.974 2.618-3.807 2.452-5.5-.5a86.922 86.922 0 0 0 3-10c-1.342-3.68-2.675-7.346-4-11-14.915-6.63-25.748-2.464-32.5 12.5-4.202 9.74-4.202 19.407 0 29 7.223 9.787 11.056 20.787 11.5 33a84.94 84.94 0 0 1-13-.5 42.319 42.319 0 0 0-6.5-8.5c-.848-3.198-2.348-6.031-4.5-8.5 2.543-.14 4.877-.806 7-2-3.631-2.04-4.964-5.207-4-9.5 6.773-1.48 7.273-3.813 1.5-7-1.665-5.388-1.331-10.722 1-16a64.218 64.218 0 0 0 0-16c-1.093-3.086-2.926-5.586-5.5-7.5 1.553-3.565 1.22-6.899-1-10-3.328-1.956-6.328-1.456-9 1.5a53.614 53.614 0 0 0-13-2.5 28.83 28.83 0 0 0-4 6c-2.503.13-4.503 1.13-6 3l4 8c-3.284.98-5.95.148-8-2.5 2.715-2.05 2.548-3.717-.5-5-8.218 4.123-8.385 8.29-.5 12.5l9 1c-1.36 1.938-1.027 3.604 1 5 5.004 1.421 10.004 1.588 15 .5 1.196.346 1.196.846 0 1.5l-7 1c-2.806 4.572-5.806 4.572-9 0-3.837-.761-7.504-.261-11 1.5-1.53-.029-2.696-.696-3.5-2a4.932 4.932 0 0 0-.5 3z"/><path style="opacity:1" fill="#fefffe" d="M86.5 13.5a44.293 44.293 0 0 1 2 3l2-2c1.126 2.006.46 3.34-2 4a26.094 26.094 0 0 0-5-3.5c1.237-.232 2.237-.732 3-1.5z"/><path style="opacity:1" fill="#cb0000" d="M67.5 21.5c1.291 1.042 1.291 2.208 0 3.5l2 3 16 1a12.417 12.417 0 0 1 4 2.5l-1.5 1A107.41 107.41 0 0 0 67.5 30c-2.601-2.83-2.601-5.663 0-8.5z"/><path style="opacity:1" fill="#fefffe" d="M25.5 24.5c1.837.14 2.17.806 1 2-.797-.457-1.13-1.124-1-2zM85.5 25.5c2.186.01 3.02 1.01 2.5 3a15.276 15.276 0 0 0-4.5-1.5c.916-.278 1.582-.778 2-1.5zM99.5 27.5c1.877 1.16 2.377 2.826 1.5 5a42.56 42.56 0 0 1-1.5-5zM60.5 43.5h2c-.183 2.436.484 4.603 2 6.5l-1 .5a15.445 15.445 0 0 1-3-7zM58.5 49.5c2.602 2.594 5.603 3.427 9 2.5-1.772 1.487-3.772 1.82-6 1-1.926-.422-2.926-1.59-3-3.5zM57.5 62.5c.997-1.212 1.997-1.046 3 .5-1.077.47-2.077.303-3-.5zM22.5 74.5c6.486 1.275 6.486 1.942 0 2v-2zM63.5 76.5c1.837.14 2.17.806 1 2-.797-.457-1.13-1.124-1-2zM79.5 76.5c1.844.704 2.344 2.037 1.5 4a10.123 10.123 0 0 1-1.5-4zM91.5 78.5c.79.283 1.456.783 2 1.5-1.316.528-1.983.028-2-1.5zM101.5 82.5c.789.283 1.456.783 2 1.5-1.316.528-1.983.028-2-1.5z"/><path style="opacity:1" fill="#003266" d="M3.5 98.5h158c4.214 26.012-.62 50.012-14.5 72-28.015 32.795-61.848 40.628-101.5 23.5C22.255 180.751 8.422 160.918 4 134.5a648.427 648.427 0 0 1-.5-36z"/><path style="opacity:1" d="M77.5 102.5c3.398-.32 6.732.013 10 1a15.42 15.42 0 0 1 1 7 11.987 11.987 0 0 1 6 1 25.87 25.87 0 0 1 1 10h-7a16.868 16.868 0 0 0 1 8c24.704 5.702 39.038 21.036 43 46l-1 4a157.286 157.286 0 0 0-19-17.5c-19.988-11.329-39.988-11.329-60 0a94.778 94.778 0 0 0-19 17.5c1.15-27.171 15.15-43.838 42-50a16.868 16.868 0 0 0 1-8h-7a25.87 25.87 0 0 1 1-10 11.987 11.987 0 0 1 6-1 24.93 24.93 0 0 1 1-8z"/><path style="opacity:1" fill="#fe9900" d="M78.5 105.5h8v8h7v6h-7a36.872 36.872 0 0 0 1 12c24.613 4.777 38.78 19.444 42.5 44-15.698-20.067-36.198-27.567-61.5-22.5-13.734 3.621-24.9 11.121-33.5 22.5 3.67-24.508 17.836-39.174 42.5-44a36.872 36.872 0 0 0 1-12h-7v-6h7v-8z"/><path style="opacity:1" fill="#fefffe" d="M-.5 131.5c7.173 40.17 30.506 65.17 70 75h-70v-75zM165.5 133.5v73h-70c38.642-9.642 61.975-33.976 70-73z"/></svg>
